X: 33251
T: Pull The Knife And Stick It Again
R: jig
M: 6/8
K: Ddorian
~D3 FED|CA,C CA,C|~D3 FED|~G3 GEC|
D3 FED|CA,C CDE|~F2D EDC|A,DA, D3|
~D3 FED|CA,C CA,C|~D3 ~E3|~F3 GEC|
D3 FED|CA,C CDE|~F2D EDC|A,DA, D3||
dcA AGE|DCA, C3|dcA AGE|GAB c3|
dcA AGE|DCA, CDE|~D3 EDC|A,DA, D3|
dcA AGE|DB,C CDC|dcA AGE|GAB cde|
dcA AGE|DCD CDE|~F2D EDC|A,DA, D3||

